X:1
T:Click Go The Shears
M:6/8
L:1/4
K:C
 E3/2 E D/2| C3/2 G3/2| c3/2 c B/2| A3| G3/2 G A/2| G3/2 F E/2| E3/2 D E/2|\
 D3| E- F/2 E D/2| C3/2 E G/2| c3/2 c B/2| A3/2- A c/2| d c/2 B A/2|\
 G F/2 E D/2| C c/2 c c/2| c3| d3/2 d c/2| B3/2 G3/2| c3/2 e3/2| c3|\
 A3/2 A B/2| c3/2 B A/2| G3/2 c- E/2| D2- D/2D/2| E F/2 E D/2| C3/2 E G/2|\
 c c/2 c B/2| A3/2- A c/2| d c/2 B A/2| G F/2 E D/2| C3/2 c c/2| c3|\
